img/intro/bg-1.svg

<svg width="1920" height="1714" fill="none" xmlns="http://www.w3.org/2000/svg"><path d="M1745.6 49.727c11.6.157 19.5-11.688 14.91-22.336l-139.2-322.722a26.012 26.012 0 0 0-22.14-15.644l-63.64-4.264c-11.92-.799-20.48 11.278-15.77 22.262l139.62 326.093a26.012 26.012 0 0 0 23.55 15.764l62.67.847Z" fill="url(#a)" fill-opacity=".1" style="mix-blend-mode:lighten"/><path d="m1384.42 189.612-139.2-322.723a25.505 25.505 0 0 0-21.71-15.343l-63.63-4.264c-11.55-.774-19.85 10.926-15.29 21.567l139.63 326.093a25.504 25.504 0 0 0 23.1 15.46l62.66.847c11.24.152 18.89-11.322 14.44-21.637Z" stroke="url(#b)"/><path d="M1840.4 613.733c11.58.141 19.47-11.697 14.88-22.336l-139.2-322.732a26.002 26.002 0 0 0-22.18-15.647l-63.97-4.189c-11.91-.781-20.45 11.289-15.75 22.263l139.63 326.112a26.005 26.005 0 0 0 23.59 15.765l63 .764Z" fill="url(#c)" fill-opacity=".1" style="mix-blend-mode:lighten"/><path d="M1464.77 775.755c11.59.14 19.48-11.697 14.89-22.336l-139.21-322.732a26 26 0 0 0-22.17-15.647l-63.97-4.19c-11.92-.78-20.46 11.289-15.76 22.264l139.63 326.112a26.004 26.004 0 0 0 23.59 15.764l63 .765Z" fill="url(#d)" fill-opacity=".1" style="mix-blend-mode:lighten"/><path d="m1740.06 1014.19-199.14-460.016a25.487 25.487 0 0 0-21.12-15.268l-64.85-5.817c-11.7-1.049-20.27 10.791-15.62 21.577l196.73 456.084a25.51 25.51 0 0 0 19.77 15.14l67.79 9.8c12 1.74 21.26-10.37 16.44-21.5Z" stroke="url(#e)"/><path d="m1553.84 238.188-169.68-391.752a25.507 25.507 0 0 0-22.64-15.354l-62.57-1.865c-11.34-.338-19.19 11.217-14.7 21.632l167.55 388.428a25.496 25.496 0 0 0 21.38 15.319l65.2 5.204c11.66.93 20.1-10.884 15.46-21.612Z" stroke="url(#f)"/><path d="M1162.72 422.321c12.03.96 20.75-11.235 15.95-22.309L1008.99 8.259a26.002 26.002 0 0 0-23.083-15.654l-62.57-1.865c-11.704-.349-19.806 11.579-15.168 22.33l167.541 388.427a26.013 26.013 0 0 0 21.81 15.62l65.2 5.204Z" fill="url(#g)" fill-opacity=".1"/><path d="m1878.05 301.157-85.29-197.736a19.492 19.492 0 0 0-16.92-11.752L1708 88.245c-11.47-.579-19.56 11.076-15.02 21.619l88.83 205.925a15.494 15.494 0 0 0 13.45 9.341l63.9 3.226c14.43.728 24.61-13.935 18.89-27.199Z" stroke="url(#h)"/><path d="M1483.51 490.877c14.8.746 25.24-14.292 19.37-27.896l-85.29-197.737a19.981 19.981 0 0 0-17.35-12.053l-67.84-3.424c-11.84-.597-20.19 11.434-15.5 22.317l88.82 205.925a16.01 16.01 0 0 0 13.89 9.642l63.9 3.226Z" fill="url(#i)" fill-opacity=".1" style="mix-blend-mode:lighten"/><path d="m1677.46 180.395-85.29-197.737a19.519 19.519 0 0 0-16.93-11.752l-67.84-3.424c-11.46-.578-19.56 11.077-15.01 21.62l88.82 205.924a15.51 15.51 0 0 0 13.45 9.342l63.91 3.225c14.43.728 24.61-13.935 18.89-27.198Z" stroke="url(#j)"/><path d="m1301.83 342.416-85.29-197.736a19.491 19.491 0 0 0-16.92-11.752l-67.84-3.424c-11.47-.579-19.56 11.076-15.02 21.619l88.83 205.925a15.498 15.498 0 0 0 13.45 9.341l63.9 3.226c14.43.728 24.61-13.935 18.89-27.199Z" stroke="url(#k)"/><path d="m1094.72 545.933-85.29-197.737a19.517 19.517 0 0 0-16.926-11.752l-67.838-3.424c-11.468-.578-19.562 11.077-15.014 21.62l88.823 205.924a15.498 15.498 0 0 0 13.455 9.342l63.9 3.225c14.43.728 24.61-13.935 18.89-27.198Z" stroke="url(#l)"/><path d="m1673.2 514.816-85.29-197.736a19.493 19.493 0 0 0-16.92-11.752l-67.84-3.424c-11.47-.579-19.56 11.077-15.01 21.62l88.82 205.924a15.497 15.497 0 0 0 13.45 9.342l63.9 3.225c14.43.728 24.61-13.935 18.89-27.199Z" stroke="url(#m)"/><path d="m1297.58 676.839-85.29-197.736a19.518 19.518 0 0 0-16.93-11.752l-67.84-3.424c-11.46-.579-19.56 11.076-15.01 21.619l88.82 205.925a15.512 15.512 0 0 0 13.46 9.341l63.9 3.225c14.43.729 24.61-13.934 18.89-27.198Z" stroke="url(#n)"/><path d="M1161.4 88.395c14.8.747 25.24-14.292 19.37-27.896l-85.29-197.736a19.98 19.98 0 0 0-17.35-12.053l-67.84-3.424c-11.84-.598-20.195 11.433-15.501 22.316l88.821 205.925a16.01 16.01 0 0 0 13.89 9.643l63.9 3.225Z" fill="url(#o)" fill-opacity=".1"/><g filter="url(#p)"><circle cx="1624.67" cy="239.04" r="437.269" fill="#8B00CD"/></g><g filter="url(#q)"><circle cx="1129.27" cy="168.269" r="437.269" fill="#1BA4D8"/></g><g filter="url(#r)"><circle cx="1267.02" cy="676.309" r="437.269" fill="#8B00CD"/></g><g filter="url(#s)"><ellipse cx="622.612" cy="592.207" rx="514.188" ry="64.923" transform="rotate(67.108 622.612 592.207)" fill="#8B00CD" fill-opacity=".3"/></g><g filter="url(#t)"><ellipse cx="405.684" cy="51.452" rx="514.188" ry="64.923" transform="rotate(67.108 405.684 51.452)" fill="#1BA4D8" fill-opacity=".3"/></g><g filter="url(#u)"><ellipse cx="399.205" cy="230.02" rx="514.188" ry="64.923" transform="rotate(67.108 399.205 230.02)" fill="#8B00CD" fill-opacity=".3"/></g><defs><linearGradient id="e" x1="1431.26" y1="513.133" x2="1723.32" y2="1201.97" gradientUnits="userSpaceOnUse"><stop stop-color="#1BA4D8"/><stop offset="1" stop-color="#fff" stop-opacity="0"/></linearGradient><linearGradient id="o" x1="1041.34" y1="-155.333" x2="1143.58" y2="95.003" gradientUnits="userSpaceOnUse"><stop stop-color="#1BA4D8"/><stop offset="1" stop-color="#fff" stop-opacity="0"/></linearGradient><linearGradient id="n" x1="1109.1" y1="420.74" x2="1263.45" y2="823.249" gradientUnits="userSpaceOnUse"><stop stop-color="#1BA4D8"/><stop offset="1" stop-color="#fff" stop-opacity="0"/></linearGradient><linearGradient id="m" x1="1505.18" y1="269.066" x2="1672.81" y2="620.223" gradientUnits="userSpaceOnUse"><stop stop-color="#1BA4D8"/><stop offset="1" stop-color="#fff" stop-opacity="0"/></linearGradient><linearGradient id="l" x1="910.565" y1="322.741" x2="1044.07" y2="633.266" gradientUnits="userSpaceOnUse"><stop stop-color="#1BA4D8"/><stop offset="1" stop-color="#fff" stop-opacity="0"/></linearGradient><linearGradient id="k" x1="1117.68" y1="119.224" x2="1251.18" y2="429.749" gradientUnits="userSpaceOnUse"><stop stop-color="#1BA4D8"/><stop offset="1" stop-color="#fff" stop-opacity="0"/></linearGradient><linearGradient id="a" x1="1542.32" y1="-318.017" x2="1701.89" y2="54.504" gradientUnits="userSpaceOnUse"><stop stop-color="#1BA4D8"/><stop offset="1" stop-color="#fff" stop-opacity="0"/></linearGradient><linearGradient id="b" x1="1152.88" y1="-173.319" x2="1342.68" y2="255.958" gradientUnits="userSpaceOnUse"><stop stop-color="#1BA4D8"/><stop offset="1" stop-color="#fff" stop-opacity="0"/></linearGradient><linearGradient id="c" x1="1666.91" y1="255.48" x2="1816.65" y2="628.456" gradientUnits="userSpaceOnUse"><stop stop-color="#1BA4D8"/><stop offset="1" stop-color="#fff" stop-opacity="0"/></linearGradient><linearGradient id="d" x1="1269.07" y1="407.93" x2="1419.05" y2="782.576" gradientUnits="userSpaceOnUse"><stop stop-color="#1BA4D8"/><stop offset="1" stop-color="#fff" stop-opacity="0"/></linearGradient><linearGradient id="j" x1="1507.36" y1="-82.889" x2="1658.74" y2="280.618" gradientUnits="userSpaceOnUse"><stop stop-color="#1BA4D8"/><stop offset="1" stop-color="#fff" stop-opacity="0"/></linearGradient><linearGradient id="f" x1="1301.09" y1="-174.625" x2="1558.67" y2="425.814" gradientUnits="userSpaceOnUse"><stop stop-color="#1BA4D8"/><stop offset="1" stop-color="#fff" stop-opacity="0"/></linearGradient><linearGradient id="g" x1="950.502" y1="-.939" x2="1135.09" y2="420.927" gradientUnits="userSpaceOnUse"><stop stop-color="#1BA4D8"/><stop offset=".993" stop-color="#fff" stop-opacity="0"/></linearGradient><linearGradient id="h" x1="1706.24" y1="60.681" x2="1842.7" y2="435.142" gradientUnits="userSpaceOnUse"><stop stop-color="#1BA4D8"/><stop offset="1" stop-color="#fff" stop-opacity="0"/></linearGradient><linearGradient id="i" x1="1379.94" y1="250.519" x2="1467.2" y2="484.155" gradientUnits="userSpaceOnUse"><stop stop-color="#1BA4D8"/><stop offset="1" stop-color="#fff" stop-opacity="0"/></linearGradient><filter id="q" x="92" y="-869" width="2074.54" height="2074.54" filterUnits="userSpaceOnUse" color-interpolation-filters="sRGB"><feFlood flood-opacity="0" result="BackgroundImageFix"/><feBlend in="SourceGraphic" in2="BackgroundImageFix" result="shape"/><feGaussianBlur stdDeviation="300" result="effect1_foregroundBlur_413_964"/></filter><filter id="u" x="-409.617" y="-844.356" width="1617.64" height="2148.75" filterUnits="userSpaceOnUse" color-interpolation-filters="sRGB"><feFlood flood-opacity="0" result="BackgroundImageFix"/><feBlend in="SourceGraphic" in2="BackgroundImageFix" result="shape"/><feGaussianBlur stdDeviation="300" result="effect1_foregroundBlur_413_964"/></filter><filter id="t" x="-403.138" y="-1022.92" width="1617.64" height="2148.75" filterUnits="userSpaceOnUse" color-interpolation-filters="sRGB"><feFlood flood-opacity="0" result="BackgroundImageFix"/><feBlend in="SourceGraphic" in2="BackgroundImageFix" result="shape"/><feGaussianBlur stdDeviation="300" result="effect1_foregroundBlur_413_964"/></filter><filter id="s" x="-186.21" y="-482.169" width="1617.64" height="2148.75" filterUnits="userSpaceOnUse" color-interpolation-filters="sRGB"><feFlood flood-opacity="0" result="BackgroundImageFix"/><feBlend in="SourceGraphic" in2="BackgroundImageFix" result="shape"/><feGaussianBlur stdDeviation="300" result="effect1_foregroundBlur_413_964"/></filter><filter id="r" x="229.752" y="-360.96" width="2074.54" height="2074.54" filterUnits="userSpaceOnUse" color-interpolation-filters="sRGB"><feFlood flood-opacity="0" result="BackgroundImageFix"/><feBlend in="SourceGraphic" in2="BackgroundImageFix" result="shape"/><feGaussianBlur stdDeviation="300" result="effect1_foregroundBlur_413_964"/></filter><filter id="p" x="587.403" y="-798.229" width="2074.54" height="2074.54" filterUnits="userSpaceOnUse" color-interpolation-filters="sRGB"><feFlood flood-opacity="0" result="BackgroundImageFix"/><feBlend in="SourceGraphic" in2="BackgroundImageFix" result="shape"/><feGaussianBlur stdDeviation="300" result="effect1_foregroundBlur_413_964"/></filter></defs></svg>

<svg width="1920" height="1714" viewBox="0 0 1920 1714" fill="none" xmlns="http://www.w3.org/2000/svg">
<g style="mix-blend-mode:lighten">
<path d="M1745.6 49.7269C1757.2 49.8836 1765.1 38.039 1760.51 27.3913L1621.31 -295.331C1617.44 -304.284 1608.9 -310.324 1599.17 -310.975L1535.53 -315.239C1523.61 -316.038 1515.05 -303.961 1519.76 -292.977L1659.38 33.1164C1663.43 42.5631 1672.66 48.7411 1682.93 48.88L1745.6 49.7269Z" fill="url(#paint0_linear_413_964)" fill-opacity="0.1"/>
</g>
<path d="M1384.42 189.612L1245.22 -133.111C1241.43 -141.891 1233.05 -147.815 1223.51 -148.454L1159.88 -152.718C1148.33 -153.492 1140.03 -141.792 1144.59 -131.151L1284.22 194.942C1288.19 204.207 1297.24 210.266 1307.32 210.402L1369.98 211.249C1381.22 211.401 1388.87 199.927 1384.42 189.612Z" stroke="url(#paint1_linear_413_964)"/>
<g style="mix-blend-mode:lighten">
<path d="M1840.4 613.733C1851.98 613.874 1859.87 602.036 1855.28 591.397L1716.08 268.665C1712.21 259.699 1703.65 253.656 1693.9 253.018L1629.93 248.829C1618.02 248.048 1609.48 260.118 1614.18 271.092L1753.81 597.204C1757.86 606.663 1767.11 612.844 1777.4 612.969L1840.4 613.733Z" fill="url(#paint2_linear_413_964)" fill-opacity="0.1"/>
</g>
<g style="mix-blend-mode:lighten">
<path d="M1464.77 775.755C1476.36 775.895 1484.25 764.058 1479.66 753.419L1340.45 430.687C1336.58 421.721 1328.02 415.678 1318.28 415.04L1254.31 410.85C1242.39 410.07 1233.85 422.139 1238.55 433.114L1378.18 759.226C1382.23 768.685 1391.48 774.865 1401.77 774.99L1464.77 775.755Z" fill="url(#paint3_linear_413_964)" fill-opacity="0.1"/>
</g>
<path d="M1740.06 1014.19L1540.92 554.174C1537.21 545.599 1529.11 539.74 1519.8 538.906L1454.95 533.089C1443.25 532.04 1434.68 543.88 1439.33 554.666L1636.06 1010.75C1639.57 1018.89 1647.06 1024.62 1655.83 1025.89L1723.62 1035.69C1735.62 1037.43 1744.88 1025.32 1740.06 1014.19Z" stroke="url(#paint4_linear_413_964)"/>
<path d="M1553.84 238.188L1384.16 -153.564C1380.23 -162.639 1371.4 -168.623 1361.52 -168.918L1298.95 -170.783C1287.61 -171.121 1279.76 -159.566 1284.25 -149.151L1451.8 239.277C1455.54 247.95 1463.77 253.845 1473.18 254.596L1538.38 259.8C1550.04 260.73 1558.48 248.916 1553.84 238.188Z" stroke="url(#paint5_linear_413_964)"/>
<path d="M1162.72 422.321C1174.75 423.281 1183.47 411.086 1178.67 400.012L1008.99 8.25945C1004.98 -0.993578 995.986 -7.09483 985.907 -7.39524L923.337 -9.26015C911.633 -9.60897 903.531 2.31865 908.169 13.0698L1075.71 401.497C1079.53 410.341 1087.92 416.351 1097.52 417.117L1162.72 422.321Z" fill="url(#paint6_linear_413_964)" fill-opacity="0.1"/>
<path d="M1878.05 301.157L1792.76 103.421C1789.82 96.6003 1783.26 92.0435 1775.84 91.6691L1708 88.245C1696.53 87.6662 1688.44 99.3214 1692.98 109.864L1781.81 315.789C1784.15 321.211 1789.36 324.833 1795.26 325.13L1859.16 328.356C1873.59 329.084 1883.77 314.421 1878.05 301.157Z" stroke="url(#paint7_linear_413_964)"/>
<g style="mix-blend-mode:lighten">
<path d="M1483.51 490.877C1498.31 491.623 1508.75 476.585 1502.88 462.981L1417.59 265.244C1414.58 258.249 1407.85 253.575 1400.24 253.191L1332.4 249.767C1320.56 249.17 1312.21 261.201 1316.9 272.084L1405.72 478.009C1408.14 483.605 1413.52 487.344 1419.61 487.651L1483.51 490.877Z" fill="url(#paint8_linear_413_964)" fill-opacity="0.1"/>
</g>
<path d="M1677.46 180.395L1592.17 -17.3417C1589.22 -24.1624 1582.66 -28.7192 1575.24 -29.0936L1507.4 -32.5177C1495.94 -33.0965 1487.84 -21.4413 1492.39 -10.8984L1581.21 195.026C1583.55 200.448 1588.77 204.07 1594.66 204.368L1658.57 207.593C1673 208.321 1683.18 193.658 1677.46 180.395Z" stroke="url(#paint9_linear_413_964)"/>
<path d="M1301.83 342.416L1216.54 144.68C1213.6 137.859 1207.04 133.302 1199.62 132.928L1131.78 129.504C1120.31 128.925 1112.22 140.58 1116.76 151.123L1205.59 357.048C1207.93 362.469 1213.14 366.091 1219.04 366.389L1282.94 369.615C1297.37 370.343 1307.55 355.68 1301.83 342.416Z" stroke="url(#paint10_linear_413_964)"/>
<path d="M1094.72 545.933L1009.43 348.196C1006.48 341.376 999.923 336.819 992.504 336.444L924.666 333.02C913.198 332.442 905.104 344.097 909.652 354.64L998.475 560.564C1000.81 565.986 1006.03 569.608 1011.93 569.906L1075.83 573.131C1090.26 573.859 1100.44 559.196 1094.72 545.933Z" stroke="url(#paint11_linear_413_964)"/>
<path d="M1673.2 514.816L1587.91 317.08C1584.97 310.259 1578.41 305.703 1570.99 305.328L1503.15 301.904C1491.68 301.325 1483.59 312.981 1488.14 323.524L1576.96 529.448C1579.3 534.87 1584.51 538.492 1590.41 538.79L1654.31 542.015C1668.74 542.743 1678.92 528.08 1673.2 514.816Z" stroke="url(#paint12_linear_413_964)"/>
<path d="M1297.58 676.839L1212.29 479.103C1209.34 472.282 1202.78 467.725 1195.36 467.351L1127.52 463.927C1116.06 463.348 1107.96 475.003 1112.51 485.546L1201.33 691.471C1203.67 696.892 1208.89 700.514 1214.79 700.812L1278.69 704.037C1293.12 704.766 1303.3 690.103 1297.58 676.839Z" stroke="url(#paint13_linear_413_964)"/>
<path d="M1161.4 88.3952C1176.2 89.142 1186.64 74.1031 1180.77 60.4993L1095.48 -137.237C1092.47 -144.233 1085.74 -148.906 1078.13 -149.29L1010.29 -152.714C998.45 -153.312 990.095 -141.281 994.789 -130.398L1083.61 75.5272C1086.03 81.1236 1091.41 84.8625 1097.5 85.1697L1161.4 88.3952Z" fill="url(#paint14_linear_413_964)" fill-opacity="0.1"/>
<g filter="url(#filter0_f_413_964)">
<circle cx="1624.67" cy="239.04" r="437.269" fill="#8B00CD"/>
</g>
<g filter="url(#filter1_f_413_964)">
<circle cx="1129.27" cy="168.269" r="437.269" fill="#1BA4D8"/>
</g>
<g filter="url(#filter2_f_413_964)">
<circle cx="1267.02" cy="676.309" r="437.269" fill="#8B00CD"/>
</g>
<g filter="url(#filter3_f_413_964)">
<ellipse cx="622.612" cy="592.207" rx="514.188" ry="64.9233" transform="rotate(67.1081 622.612 592.207)" fill="#8B00CD" fill-opacity="0.3"/>
</g>
<g filter="url(#filter4_f_413_964)">
<ellipse cx="405.684" cy="51.4517" rx="514.188" ry="64.9233" transform="rotate(67.1081 405.684 51.4517)" fill="#1BA4D8" fill-opacity="0.3"/>
</g>
<g filter="url(#filter5_f_413_964)">
<ellipse cx="399.205" cy="230.02" rx="514.188" ry="64.9233" transform="rotate(67.1081 399.205 230.02)" fill="#8B00CD" fill-opacity="0.3"/>
</g>
<defs>
<filter id="filter0_f_413_964" x="587.403" y="-798.229" width="2074.54" height="2074.54" filterUnits="userSpaceOnUse" color-interpolation-filters="sRGB">
<feFlood flood-opacity="0" result="BackgroundImageFix"/>
<feBlend mode="normal" in="SourceGraphic" in2="BackgroundImageFix" result="shape"/>
<feGaussianBlur stdDeviation="300" result="effect1_foregroundBlur_413_964"/>
</filter>
<filter id="filter1_f_413_964" x="92" y="-869" width="2074.54" height="2074.54" filterUnits="userSpaceOnUse" color-interpolation-filters="sRGB">
<feFlood flood-opacity="0" result="BackgroundImageFix"/>
<feBlend mode="normal" in="SourceGraphic" in2="BackgroundImageFix" result="shape"/>
<feGaussianBlur stdDeviation="300" result="effect1_foregroundBlur_413_964"/>
</filter>
<filter id="filter2_f_413_964" x="229.752" y="-360.96" width="2074.54" height="2074.54" filterUnits="userSpaceOnUse" color-interpolation-filters="sRGB">
<feFlood flood-opacity="0" result="BackgroundImageFix"/>
<feBlend mode="normal" in="SourceGraphic" in2="BackgroundImageFix" result="shape"/>
<feGaussianBlur stdDeviation="300" result="effect1_foregroundBlur_413_964"/>
</filter>
<filter id="filter3_f_413_964" x="-186.21" y="-482.169" width="1617.64" height="2148.75" filterUnits="userSpaceOnUse" color-interpolation-filters="sRGB">
<feFlood flood-opacity="0" result="BackgroundImageFix"/>
<feBlend mode="normal" in="SourceGraphic" in2="BackgroundImageFix" result="shape"/>
<feGaussianBlur stdDeviation="300" result="effect1_foregroundBlur_413_964"/>
</filter>
<filter id="filter4_f_413_964" x="-403.138" y="-1022.92" width="1617.64" height="2148.75" filterUnits="userSpaceOnUse" color-interpolation-filters="sRGB">
<feFlood flood-opacity="0" result="BackgroundImageFix"/>
<feBlend mode="normal" in="SourceGraphic" in2="BackgroundImageFix" result="shape"/>
<feGaussianBlur stdDeviation="300" result="effect1_foregroundBlur_413_964"/>
</filter>
<filter id="filter5_f_413_964" x="-409.617" y="-844.356" width="1617.64" height="2148.75" filterUnits="userSpaceOnUse" color-interpolation-filters="sRGB">
<feFlood flood-opacity="0" result="BackgroundImageFix"/>
<feBlend mode="normal" in="SourceGraphic" in2="BackgroundImageFix" result="shape"/>
<feGaussianBlur stdDeviation="300" result="effect1_foregroundBlur_413_964"/>
</filter>
<linearGradient id="paint0_linear_413_964" x1="1542.32" y1="-318.017" x2="1701.89" y2="54.5036" gradientUnits="userSpaceOnUse">
<stop stop-color="#1BA4D8"/>
<stop offset="1" stop-color="white" stop-opacity="0"/>
</linearGradient>
<linearGradient id="paint1_linear_413_964" x1="1152.88" y1="-173.319" x2="1342.68" y2="255.958" gradientUnits="userSpaceOnUse">
<stop stop-color="#1BA4D8"/>
<stop offset="1" stop-color="white" stop-opacity="0"/>
</linearGradient>
<linearGradient id="paint2_linear_413_964" x1="1666.91" y1="255.48" x2="1816.65" y2="628.456" gradientUnits="userSpaceOnUse">
<stop stop-color="#1BA4D8"/>
<stop offset="1" stop-color="white" stop-opacity="0"/>
</linearGradient>
<linearGradient id="paint3_linear_413_964" x1="1269.07" y1="407.93" x2="1419.05" y2="782.576" gradientUnits="userSpaceOnUse">
<stop stop-color="#1BA4D8"/>
<stop offset="1" stop-color="white" stop-opacity="0"/>
</linearGradient>
<linearGradient id="paint4_linear_413_964" x1="1431.26" y1="513.133" x2="1723.32" y2="1201.97" gradientUnits="userSpaceOnUse">
<stop stop-color="#1BA4D8"/>
<stop offset="1" stop-color="white" stop-opacity="0"/>
</linearGradient>
<linearGradient id="paint5_linear_413_964" x1="1301.09" y1="-174.625" x2="1558.67" y2="425.814" gradientUnits="userSpaceOnUse">
<stop stop-color="#1BA4D8"/>
<stop offset="1" stop-color="white" stop-opacity="0"/>
</linearGradient>
<linearGradient id="paint6_linear_413_964" x1="950.502" y1="-0.938701" x2="1135.09" y2="420.927" gradientUnits="userSpaceOnUse">
<stop stop-color="#1BA4D8"/>
<stop offset="0.992708" stop-color="white" stop-opacity="0"/>
</linearGradient>
<linearGradient id="paint7_linear_413_964" x1="1706.24" y1="60.6809" x2="1842.7" y2="435.142" gradientUnits="userSpaceOnUse">
<stop stop-color="#1BA4D8"/>
<stop offset="1" stop-color="white" stop-opacity="0"/>
</linearGradient>
<linearGradient id="paint8_linear_413_964" x1="1379.94" y1="250.519" x2="1467.2" y2="484.155" gradientUnits="userSpaceOnUse">
<stop stop-color="#1BA4D8"/>
<stop offset="1" stop-color="white" stop-opacity="0"/>
</linearGradient>
<linearGradient id="paint9_linear_413_964" x1="1507.36" y1="-82.8889" x2="1658.74" y2="280.618" gradientUnits="userSpaceOnUse">
<stop stop-color="#1BA4D8"/>
<stop offset="1" stop-color="white" stop-opacity="0"/>
</linearGradient>
<linearGradient id="paint10_linear_413_964" x1="1117.68" y1="119.224" x2="1251.18" y2="429.749" gradientUnits="userSpaceOnUse">
<stop stop-color="#1BA4D8"/>
<stop offset="1" stop-color="white" stop-opacity="0"/>
</linearGradient>
<linearGradient id="paint11_linear_413_964" x1="910.565" y1="322.741" x2="1044.07" y2="633.266" gradientUnits="userSpaceOnUse">
<stop stop-color="#1BA4D8"/>
<stop offset="1" stop-color="white" stop-opacity="0"/>
</linearGradient>
<linearGradient id="paint12_linear_413_964" x1="1505.18" y1="269.066" x2="1672.81" y2="620.223" gradientUnits="userSpaceOnUse">
<stop stop-color="#1BA4D8"/>
<stop offset="1" stop-color="white" stop-opacity="0"/>
</linearGradient>
<linearGradient id="paint13_linear_413_964" x1="1109.1" y1="420.74" x2="1263.45" y2="823.249" gradientUnits="userSpaceOnUse">
<stop stop-color="#1BA4D8"/>
<stop offset="1" stop-color="white" stop-opacity="0"/>
</linearGradient>
<linearGradient id="paint14_linear_413_964" x1="1041.34" y1="-155.333" x2="1143.58" y2="95.0033" gradientUnits="userSpaceOnUse">
<stop stop-color="#1BA4D8"/>
<stop offset="1" stop-color="white" stop-opacity="0"/>
</linearGradient>
</defs>
</svg>
